Development/img/icon-projects.svg

<?xml version="1.0" encoding="UTF-8" standalone="no"?>
<svg
   xmlns:dc="http://purl.org/dc/elements/1.1/"
   xmlns:cc="http://creativecommons.org/ns#"
   xmlns:rdf="http://www.w3.org/1999/02/22-rdf-syntax-ns#"
   xmlns:svg="http://www.w3.org/2000/svg"
   xmlns="http://www.w3.org/2000/svg"
   xmlns:sodipodi="http://sodipodi.sourceforge.net/DTD/sodipodi-0.dtd"
   xmlns:inkscape="http://www.inkscape.org/namespaces/inkscape"
   enable-background="new 0 0 128 128"
   height="128px"
   id="Layer_1"
   version="1.1"
   viewBox="0 0 128 128"
   width="128px"
   xml:space="preserve"
   sodipodi:docname="icon-projects.svg"
   inkscape:version="0.92.2 (5c3e80d, 2017-08-06)"><metadata
     id="metadata15"><rdf:RDF><cc:Work
         rdf:about=""><dc:format>image/svg+xml</dc:format><dc:type
           rdf:resource="http://purl.org/dc/dcmitype/StillImage" /><dc:title></dc:title></cc:Work></rdf:RDF></metadata><defs
     id="defs13" /><sodipodi:namedview
     pagecolor="#ffffff"
     bordercolor="#666666"
     borderopacity="1"
     objecttolerance="10"
     gridtolerance="10"
     guidetolerance="10"
     inkscape:pageopacity="0"
     inkscape:pageshadow="2"
     inkscape:window-width="1618"
     inkscape:window-height="1027"
     id="namedview11"
     showgrid="false"
     inkscape:pagecheckerboard="true"
     inkscape:zoom="1.84375"
     inkscape:cx="64"
     inkscape:cy="42.305085"
     inkscape:window-x="54"
     inkscape:window-y="-8"
     inkscape:window-maximized="1"
     inkscape:current-layer="layer2" /><g
     inkscape:groupmode="layer"
     id="layer2"
     inkscape:label="Layer 2"><circle
       style="opacity:1;fill:#c6c62a;fill-opacity:1;stroke:none;stroke-width:1.5642904;stroke-linecap:round;stroke-linejoin:round;stroke-miterlimit:4;stroke-dasharray:none;stroke-opacity:1"
       id="path843"
       cx="64"
       cy="64"
       r="64" /></g><g
     inkscape:groupmode="layer"
     id="layer3"
     inkscape:label="Layer 3"><rect
       style="display:inline;opacity:1;fill:#ffffff;fill-opacity:1;stroke:none;stroke-width:1.52062786;stroke-linecap:round;stroke-linejoin:round;stroke-miterlimit:4;stroke-dasharray:none;stroke-opacity:1"
       id="rect4536"
       width="83.291313"
       height="80.510597"
       x="22.4375"
       y="21.625" /></g><g
     inkscape:groupmode="layer"
     id="layer1"
     inkscape:label="Layer 1"
     style="display:inline"><g
       id="g6"
       transform="matrix(0.70312509,0,0,0.70312506,20,18)"><g
         id="g4"><path
           d="M 56,40 H 24 V 72 H 56 Z M 24,88 h 80 V 80 H 24 Z m 0,16 h 80 V 96 H 24 Z M 64,40 v 8 h 40 v -8 z m 0,24 h 40 V 56 H 64 Z"
           id="path2"
           inkscape:connector-curvature="0"
           style="fill:#b0bec5" /></g></g><path
       style="fill:#546e7a;stroke-width:0.70312512"
       d="M 104.37501,18 H 25.625001 C 22.524218,18 20,20.524218 20,23.625 v 78.75001 C 20,105.47579 22.524218,108 25.625001,108 H 104.37501 C 107.47579,108 110,105.47579 110,102.37501 V 23.625 C 110,20.524218 107.47579,18 104.37501,18 Z m -14.062503,5.625 c 1.554612,0 2.812504,1.25789 2.812504,2.812499 0,1.554611 -1.257892,2.812501 -2.812504,2.812501 -1.554613,0 -2.812504,-1.25789 -2.812504,-2.812501 0,-1.554609 1.257891,-2.812499 2.812504,-2.812499 z m -50.625006,0 h 39.375006 c 1.554608,0 2.8125,1.25789 2.8125,2.812499 0,1.554611 -1.257892,2.812501 -2.8125,2.812501 H 39.687501 c -1.554609,0 -2.8125,-1.25789 -2.8125,-2.812501 0,-1.554609 1.257891,-2.812499 2.8125,-2.812499 z m -11.250001,0 c 1.554611,0 2.8125,1.25789 2.8125,2.812499 0,1.554611 -1.257889,2.812501 -2.8125,2.812501 -1.554609,0 -2.812499,-1.25789 -2.812499,-2.812501 0,-1.554609 1.25789,-2.812499 2.812499,-2.812499 z m 75.93751,73.125003 c 0,3.100786 -2.52423,5.625007 -5.625004,5.625007 H 31.25 c -3.100782,0 -5.624999,-2.524221 -5.624999,-5.625007 V 40.500001 C 25.625001,37.39922 28.149218,34.875 31.25,34.875 h 67.500006 c 3.100774,0 5.625004,2.52422 5.625004,5.625001 z M 101.5625,29.25 c -1.5546,0 -2.812494,-1.25789 -2.812494,-2.812501 0,-1.554609 1.257894,-2.812499 2.812494,-2.812499 1.55462,0 2.81251,1.25789 2.81251,2.812499 0,1.554611 -1.25789,2.812501 -2.81251,2.812501 z"
       id="path8"
       inkscape:connector-curvature="0" /></g></svg>

<svg version="1.1" height="128px" viewBox="0 0 128 128" width="128px" xmlns="http://www.w3.org/2000/svg"><circle cx="64" cy="64" r="64" fill="#c6c62a"/><rect x="22.438" y="21.625" width="83.291" height="80.511" fill="#fff"/><g><g transform="matrix(.70313 0 0 .70313 20 18)"><path d="m56 40h-32v32h32zm-32 48h80v-8h-80zm0 16h80v-8h-80zm40-64v8h40v-8zm0 24h40v-8h-40z" fill="#b0bec5"/></g><path d="m104.38 18h-78.75c-3.1008 0-5.625 2.5242-5.625 5.625v78.75c0 3.1008 2.5242 5.625 5.625 5.625h78.75c3.1008 0 5.625-2.5242 5.625-5.625v-78.75c0-3.1008-2.5242-5.625-5.625-5.625zm-14.063 5.625c1.5546 0 2.8125 1.2579 2.8125 2.8125 0 1.5546-1.2579 2.8125-2.8125 2.8125-1.5546 0-2.8125-1.2579-2.8125-2.8125 0-1.5546 1.2579-2.8125 2.8125-2.8125zm-50.625 0h39.375c1.5546 0 2.8125 1.2579 2.8125 2.8125 0 1.5546-1.2579 2.8125-2.8125 2.8125h-39.375c-1.5546 0-2.8125-1.2579-2.8125-2.8125 0-1.5546 1.2579-2.8125 2.8125-2.8125zm-11.25 0c1.5546 0 2.8125 1.2579 2.8125 2.8125 0 1.5546-1.2579 2.8125-2.8125 2.8125-1.5546 0-2.8125-1.2579-2.8125-2.8125 0-1.5546 1.2579-2.8125 2.8125-2.8125zm75.938 73.125c0 3.1008-2.5242 5.625-5.625 5.625h-67.5c-3.1008 0-5.625-2.5242-5.625-5.625v-56.25c0-3.1008 2.5242-5.625 5.625-5.625h67.5c3.1008 0 5.625 2.5242 5.625 5.625zm-2.8125-67.5c-1.5546 0-2.8125-1.2579-2.8125-2.8125 0-1.5546 1.2579-2.8125 2.8125-2.8125 1.5546 0 2.8125 1.2579 2.8125 2.8125 0 1.5546-1.2579 2.8125-2.8125 2.8125z" fill="#546e7a" stroke-width=".70313"/></g></svg>
